X: 4159
T: Blue Island
R: jig
M: 6/8
K: Ddorian
|:AdB cAG|FEF GFE|DEF ~G3|AdA d2e|
fed cAG|AdB cAG|~F3 GFE|FED D2G:|
|:Add Acc|AdB cAG|Add Acc|ABc d2e|
~f3 gfe|fed cAG|~F3 GFE|FED D2G:|

